X: 16827
T: Harvest Fair
R: polka
M: 2/4
K: Amajor
|:f/|ec d2|ec d2|B2 ed|Bc df|
ef/e/ df|ec dc|Bc/B/ ed|Bc A3/2:|
|:f/|ec ea|gf f/g/a/e/|f/4g/4f/e fg|fe c>d|
ec ea|fd fa|gb eg|ba a3/2:|

